packages/core/src/svgs/tokens/branded/VEUR.svg

<svg width="24" height="24" viewBox="0 0 24 24" fill="none" xmlns="http://www.w3.org/2000/svg">
<path d="M12.3579 3.00001L12.0369 2.00001L11.7106 3.00001H10.6684L11.5105 3.61054L11.1948 4.61055L12.0369 3.98949L12.879 4.60528L12.558 3.61054L13.4001 2.99475H12.3579V3.00001ZM8.15264 4.43686L7.83159 3.43685L7.50528 4.43686H6.46317L7.30527 5.05265L6.98949 6.04739L7.83159 5.4316L8.6737 6.04739L8.35265 5.04738L9.19475 4.43686H8.15791H8.15264ZM16.1317 3.43685L16.4527 4.43686H17.5001L16.6579 5.05265L16.9737 6.04739L16.1317 5.4316L15.2896 6.04739L15.6053 5.04738L14.7632 4.43686H15.8054L16.1317 3.43685ZM19.7316 7.31582L19.4159 6.32107L19.0895 7.32107H18.0422L18.8843 7.9316L18.5685 8.93161L19.4106 8.31056L20.2527 8.92634L19.9368 7.9316L20.779 7.31582H19.7316ZM20.6317 10.6684L20.958 11.6685H22L21.1579 12.2842L21.4738 13.279L20.6317 12.6632L19.7895 13.279L20.1053 12.2789L19.2632 11.6685H20.3105L20.6317 10.6684ZM19.5159 16.2843L19.1948 15.2843L18.8737 16.2843H17.8264L18.6685 16.9001L18.3526 17.9001L19.1948 17.279L20.0369 17.8948L19.7211 16.8948L20.5632 16.2843H19.5159ZM16.3211 18.1684L16.6369 19.1684H17.6895L16.8421 19.779L17.1632 20.779L16.3211 20.1632L15.4738 20.779L15.7948 19.779L14.9527 19.1631H15.9947L16.3211 18.1684ZM12.3105 20.3895L11.9948 19.3895L11.6685 20.3895H10.621L11.4631 21.0053L11.1474 22L11.9895 21.3842L12.8316 22L12.5158 21.0001L13.3579 20.3895H12.3105ZM7.66317 17.9526L7.98423 18.9527H9.02633L8.18423 19.5633L8.50528 20.5632L7.66317 19.9421L6.82107 20.558L7.13686 19.5633L6.29474 18.9474H7.33686L7.66317 17.9526ZM4.91053 16.0684L4.58948 15.0685L4.26843 16.0684H3.22106L4.06316 16.6843L3.74738 17.679L4.58948 17.0631L5.43159 17.679L5.11579 16.679L5.95791 16.0684H4.91053ZM3.36843 10.6684L3.68948 11.6685H4.73685L3.89474 12.2842L4.21053 13.279L3.36843 12.6632L2.52632 13.279L2.84211 12.2789L2 11.6737H3.04211L3.36843 10.6737V10.6684ZM4.68422 7.31582L4.36842 6.32107L4.04211 7.32107H2.99474L3.83685 7.9316L3.52105 8.93161L4.36317 8.31056L5.20527 8.92634L4.88948 7.9316L5.73158 7.31582H4.68422Z" fill="#F0E9C6"/>
<path d="M15.4742 13.5795V7.2637H17.8427C18.2952 7.2637 18.6847 7.34791 19.0005 7.52159C19.3215 7.69001 19.569 7.92686 19.7373 8.23738C19.9058 8.54791 19.9899 8.91107 19.9899 9.32686C19.9899 9.74788 19.9058 10.1059 19.7321 10.411C19.5637 10.7111 19.3111 10.9374 18.9848 11.0953C18.6636 11.2584 18.2689 11.3427 17.8058 11.3427H16.2216V10.2637H17.6005C17.8427 10.2637 18.0479 10.2268 18.2058 10.1584C18.3636 10.0847 18.4847 9.98478 18.5637 9.84269C18.6426 9.7006 18.6847 9.52685 18.6847 9.32159C18.6847 8.70054 18.2111 8.31106 17.5952 8.31106H16.7374V13.5742H15.4742V13.5795ZM18.711 10.7058L20.211 13.5795H18.811L17.3479 10.7058H18.7163H18.711ZM13.0532 7.2637H14.3689V11.3058C14.3837 11.7168 14.2793 12.1233 14.0683 12.4764C13.8572 12.8294 13.5485 13.1138 13.1794 13.2953C12.8057 13.4848 12.3689 13.5795 11.8689 13.5795C11.3689 13.5795 10.932 13.4848 10.5531 13.2953C10.185 13.113 9.8775 12.8283 9.66738 12.4753C9.45728 12.1224 9.35363 11.7162 9.36891 11.3058V7.2637H10.6847V11.1953C10.6847 11.9058 11.1268 12.4216 11.8689 12.4216C12.6058 12.4216 13.0532 11.9058 13.0532 11.1953V7.2637ZM4.3689 13.5795V7.2637H8.31628V8.31633H5.68469V9.89525H8.31628V10.948H5.68469V12.5269H8.31628V13.5795H4.3689ZM9.31627 18.3164L8.21628 16.2111H8.98996L10.0321 18.3164H9.31102H9.31627ZM11.0373 16.2111H10.2952L9.78466 17.2111L10.1795 17.8479L11.0373 16.2111ZM11.2268 18.3164V16.2111H11.7953L12.8478 17.3269V16.2111H13.4373V18.3164H12.8531L11.8005 17.0532V18.3164H11.2215H11.2268ZM13.6478 16.2111H14.4689L16.1321 18.3164H15.2741L14.8689 17.79L14.4689 18.3164H13.6478L14.4583 17.2637L13.6478 16.2111ZM16.0531 16.2111H15.2741L15.0005 16.6269L15.4005 16.9795L16.0531 16.2111Z" fill="url(#paint0_linear_364_10427)"/>
<defs>
<linearGradient id="paint0_linear_364_10427" x1="12.2899" y1="7.2637" x2="12.2899" y2="18.3164" gradientUnits="userSpaceOnUse">
<stop stop-color="#D4BF60"/>
<stop offset="1" stop-color="#F2E6A4"/>
</linearGradient>
</defs>
</svg>

<svg xmlns="http://www.w3.org/2000/svg" width="24" height="24" fill="none" viewBox="0 0 24 24">
    <path fill="#F0E9C6" d="m12.358 3-.321-1-.326 1h-1.043l.843.61-.316 1 .842-.62.842.615-.321-.994.842-.616h-1.042zM8.153 4.437l-.321-1-.327 1H6.463l.842.616-.316.994.843-.615.842.615-.321-1 .842-.61zm7.979-1 .32 1H17.5l-.842.616.316.994-.842-.615-.842.615.315-1-.842-.61h1.042zm3.6 3.879-.316-.995-.326 1h-1.048l.842.61-.316 1 .843-.62.842.615-.316-.994.842-.616zm.9 3.352.326 1H22l-.842.616.316.995-.842-.616-.843.616.316-1-.842-.61h1.047zm-1.116 5.616-.321-1-.321 1h-1.048l.843.616-.316 1 .842-.621.842.616-.316-1 .842-.61zm-3.195 1.884.316 1h1.052l-.847.611.321 1-.842-.616-.847.616.32-1-.841-.616h1.042zm-4.01 2.222-.316-1-.326 1H10.62l.842.615-.316.995.842-.616.843.616-.316-1 .842-.61zm-4.648-2.437.321 1h1.042l-.842.61.321 1-.842-.62-.842.615.316-.995-.842-.616h1.042zm-2.752-1.885-.322-1-.32 1H3.22l.842.616-.316.995.842-.616.843.616-.316-1 .842-.61zm-1.543-5.4.321 1h1.048l-.842.616.316.995-.843-.616-.842.616.316-1L2 11.674h1.042l.326-1zm1.316-3.352-.316-.995-.326 1H2.995l.842.61-.316 1 .842-.62.842.615-.316-.994.843-.616z"/>
    <path fill="url(#VEUR__a)" d="M15.474 13.58V7.264h2.369c.452 0 .842.084 1.157.258q.484.251.737.715.253.466.253 1.09.002.628-.258 1.084c-.168.3-.42.526-.747.684q-.483.246-1.18.248h-1.583v-1.08H17.6c.243 0 .448-.036.606-.105a.75.75 0 0 0 .358-.315 1.06 1.06 0 0 0 .12-.521c0-.621-.473-1.01-1.089-1.01h-.858v5.262h-1.263zm3.237-2.874 1.5 2.874h-1.4l-1.463-2.874h1.368zm-5.658-3.442h1.316v4.042a2.13 2.13 0 0 1-1.19 1.99q-.56.284-1.31.284-.749 0-1.316-.285a2.13 2.13 0 0 1-1.184-1.99v-4.04h1.316v3.931c0 .71.442 1.227 1.184 1.227.737 0 1.184-.516 1.184-1.227zM4.37 13.579V7.264h3.947v1.052H5.685v1.58h2.631v1.052H5.685v1.579h2.631v1.053zm4.947 4.737-1.1-2.105h.774l1.042 2.105h-.721zm1.721-2.105h-.742l-.51 1 .395.637zm.19 2.105v-2.105h.568l1.053 1.116V16.21h.59v2.105h-.585L11.8 17.053v1.263h-.578zm2.42-2.105h.822l1.663 2.105h-.858l-.405-.526-.4.526h-.821l.81-1.052zm2.406 0h-.779l-.273.416.4.353z"/>
    <defs>
        <linearGradient id="VEUR__a" x1="12.29" x2="12.29" y1="7.264" y2="18.316" gradientUnits="userSpaceOnUse">
            <stop stop-color="#D4BF60"/>
            <stop offset="1" stop-color="#F2E6A4"/>
        </linearGradient>
    </defs>
</svg>
